X:625
T:Miss Erskine of Alva
R:Reel
B:The Athole Collection
M:C|
L:1/8
K:A
a|{f}e2A2 cee=g|fd=gd B=GGf|{f}e2A2 cee=g|fd=gf e2A:|
g|aefd cee=g|fd=gd B=GGg|aefd cAec|d=gBd e2Ag|
aefd ceAc|dB=gd Bd=GB|Acea gace|d=gBd e2A||

